X:25
T:Tudod babám, tudod mit ígértél
M:4/4
L:1/4
K:D
AABA | B/A/G/F/ E<D | A, D F<E | D2 D2 |
AABA | B/A/G/F/ E<D | A, D F<E | D2 D2 |
GGF<E | A2 A2 | Bc d<B | A2 D2 |
AABA | B/A/G/F/ E<D | A, D F<E | D2 D2 |

